!!!OTL: Unkraut und Gaertner.
!!!OTL-incipit:WIE KOMMTS DASS DU SO TRAURIG BIST
!!!COM: Volksweise
!!!ARE: Europa, Mitteleuropa, Deutschland
!!!SCT: F0129
!!!TXL: @@DE
!!!YEM: Copyright 1995, estate of Helmut Schaffrath.
**kern	**text
*ICvox	*
*clefG2	*
*M3/8	*
*k[b-]	*
*F:	*
!LO:TX:a:t=P:only higher voice encoded:problem	!
{16c	1._Wie
=1	=1
8.f	kommt's,
16g	daß
16a	du
16b-/	ſo
=2	=2
16.cc	trau-
32cc	-rig
8.cc}	biſt,
{16cc	und
=3	=3
8.dd	gar
16ff	nicht
16ee	ein
16dd	Mal
=4	=4
4cc	lachſt?
16r}	.
{16cc	Jch
=5	=5
16.cc	ſeh'
32b-/	dir's
8.b-/	an
16b-/	den
=6	=6
16.b-/	Au-
32a	-gen
8.a}	an,
{16cc/	daß
=7	=7
16.cc/	du
32a	ge-
8f	-wei-
8g	-net
=8	=8
4a	haſt,
16r}	.
{16cc	daß
=9	=9
16.cc/	du
32a	ge-
8f	-wei-
8g	-net
=10	=10
4f	haſt.
16r}	.
==	==
!!!AGN: Scherz - Lied
!!!ONB: ESAC (Essen Associative Code) Database: FINK
!!!AMT: simple triple
!!!AIN: vox
!!!EED: Helmut Schaffrath
!!!EEV: 1.0
!!!GTL: Volkslieder
!!Text: Volkslied
!!!source: Musikalischer Hausschatz der Deutschen. Eine Sammlung von über 1000 Liedern und Gesängen mit Singstimmen und Klavierbegleitung. Leipzig, Litterarisches Verlags-Haus.
!!!page: 76
!!!URL-scan: https://www.digitale-sammlungen.de/en/view/bsb11144622?page=84,85
!!!ENC: Anna Maria Matuszewska
!!!EEV: 2024/07/25
*-	*-